X: 37606
T: Smokies In Arbroath
R: reel
M: 4/4
K: Dmixolydian
FG|:A2 (3GFE D2 (3EFG|AGFD GABd|ADFE EDDF|GABD CEGB|
ADFE D2 (3EFG|AGFD GABd|B3G ~E2 (3FGA|B2 (3AGF EFGB:|
|:Ad ~d2 D3D|GAAA GEED|Ad ~d2 D3G|BG ~G2 ECCE|
Ad ~d2 D3D|GAAA GEEA|BG ~G2 cGEC|G,A,A,G, A,A,FG:|

